!!!SOCIAL_FUNCTION:	songs with hunting dance
!!!PDT:	1956
!!!OTL: No_35_Cow_Creek_Hunting_Dance_Song_(b).krn
!!!LANG: Non-Tone
!!!LING_GROUP: Muskogean
!!!REG: Florida
**kern
*staff1
=1-
*clefF4
*k[b-]
*M2/4
4r
8c\L
8c\J
=2!|:
4d\
12c\L
12c\
12c\J
=3||
*M3/4
4.c\
8c\
4c\
=4||
*M2/4
2c\
=5
8c\L
8c\J
8c\L
8A\J
=6
4B-\
4A\
=7
8.r
16c\
16c\LK
8.A\J
=8
4.A\
8F\
=9
8A\L
8F\J
8F\L
8E\J
=10
4C/
4C/
=11
8r
8C/
8.C/L
16B-/Jk
=12
4B-\
8B-\
16r
16c\
=13
16c\LK
8A\
16A\Jk
16A\LK
8.F\J
=14
16A\LK
8.F\J
16F\LK
8.E\J
=15||
*M3/4
8.C/L
16C/Jk
4C/
4C/
=16||
*M2/4
8F\L
8F\J
8E\L
16E\L
16C\JJ
=17
4C/
4C/
=18
*M3/4
8.r
16C/
4C/
8c\L
8c\J
==:|!
*-
